fs/shield_checkmark_24_regular.svg

<svg viewBox="0 0 24 24" fill="none" xmlns="http://www.w3.org/2000/svg" height="1em" width="1em">
  <path d="M3 5.75C3 5.33579 3.33579 5 3.75 5C6.41341 5 9.00797 4.05652 11.55 2.15C11.8167 1.95 12.1833 1.95 12.45 2.15C14.992 4.05652 17.5866 5 20.25 5C20.6642 5 21 5.33579 21 5.75V11C21 11.3381 20.9865 11.6701 20.9595 11.9961C20.5062 11.7106 20.0152 11.4795 19.4955 11.3121C19.4985 11.2087 19.5 11.1047 19.5 11V6.47793C16.9227 6.32585 14.4192 5.38829 12 3.67782C9.58084 5.38829 7.07735 6.32585 4.5 6.47793V11C4.5 15.1488 6.83178 18.2214 11.625 20.2846C11.8882 20.839 12.2276 21.3503 12.6297 21.8048C12.5126 21.8531 12.3944 21.9007 12.2749 21.9478C12.0982 22.0174 11.9018 22.0174 11.7251 21.9478C5.95756 19.6757 3 16.0012 3 11V5.75ZM23 17.5C23 20.5376 20.5376 23 17.5 23C14.4624 23 12 20.5376 12 17.5C12 14.4624 14.4624 12 17.5 12C20.5376 12 23 14.4624 23 17.5ZM20.8536 15.1464C20.6583 14.9512 20.3417 14.9512 20.1464 15.1464L16.5 18.7929L14.8536 17.1464C14.6583 16.9512 14.3417 16.9512 14.1464 17.1464C13.9512 17.3417 13.9512 17.6583 14.1464 17.8536L16.1464 19.8536C16.3417 20.0488 16.6583 20.0488 16.8536 19.8536L20.8536 15.8536C21.0488 15.6583 21.0488 15.3417 20.8536 15.1464Z" fill="#212121"/>
</svg>

<svg viewBox="0 0 24 24" fill="none" xmlns="http://www.w3.org/2000/svg" height="1em" width="1em">
  <path d="M3 5.75A.75.75 0 0 1 3.75 5c2.663 0 5.258-.943 7.8-2.85a.75.75 0 0 1 .9 0C14.992 4.057 17.587 5 20.25 5a.75.75 0 0 1 .75.75V11c0 .338-.014.67-.04.996a6.467 6.467 0 0 0-1.465-.684c.003-.103.005-.207.005-.312V6.478c-2.577-.152-5.08-1.09-7.5-2.8-2.42 1.71-4.923 2.648-7.5 2.8V11c0 4.149 2.332 7.221 7.125 9.285a6.506 6.506 0 0 0 1.005 1.52l-.355.143a.75.75 0 0 1-.55 0C5.958 19.676 3 16 3 11V5.75ZM23 17.5a5.5 5.5 0 1 1-11 0 5.5 5.5 0 0 1 11 0Zm-2.146-2.354a.5.5 0 0 0-.708 0L16.5 18.793l-1.646-1.647a.5.5 0 0 0-.708.708l2 2a.5.5 0 0 0 .708 0l4-4a.5.5 0 0 0 0-.708Z" fill="#212121"/>
</svg>
